assets/features/channel/southeast-asia1/mb.svg

<svg width="80" height="80" viewBox="0 0 80 80" fill="none" xmlns="http://www.w3.org/2000/svg">
<rect width="80" height="80" rx="8" fill="#141ED2"/>
<path fill-rule="evenodd" clip-rule="evenodd" d="M43.4875 49.6827C44.0879 48.8576 45.2458 48.6752 46.0725 49.2738C46.5422 49.6138 46.787 50.1317 46.8332 50.6679L47.4269 57.7726C47.4771 58.3292 47.3234 58.9055 46.9678 59.3939C46.1727 60.4841 44.6408 60.7263 43.5469 59.9341C42.7941 59.3893 42.4853 58.5064 42.5572 57.6394L43.1444 50.5767C43.1774 50.2636 43.2883 49.9558 43.4875 49.6827ZM32.8376 45.5015C33.4512 44.301 34.9271 43.8238 36.1318 44.4362C36.5871 44.6679 36.9262 45.027 37.167 45.4379L41.2766 52.389C41.5458 52.8675 41.5927 53.4589 41.3248 53.982C40.9065 54.7985 39.9037 55.1235 39.0836 54.7066C38.8745 54.6003 38.6976 54.4559 38.5571 54.2866L33.1715 48.2111C32.5315 47.4864 32.3705 46.4139 32.8376 45.5015ZM29.775 47.8166C30.0838 47.751 30.4124 47.7608 30.7343 47.8652C31.7061 48.1816 32.2373 49.2226 31.9206 50.1914C31.7405 50.7414 31.3215 51.1326 30.8234 51.3414L24.2225 54.0916C23.7065 54.3115 23.1088 54.343 22.5335 54.1559C21.2469 53.7378 20.545 52.3601 20.9639 51.0788C21.2522 50.1973 22.0004 49.6328 22.8508 49.4339L26.211 48.6489L26.6167 48.5537L29.7744 47.8166H29.775ZM51.0682 41.1038C51.6085 40.9961 52.1871 41.134 52.6041 41.5495C53.2553 42.1973 53.2559 43.2488 52.6054 43.8973C52.4398 44.0628 52.2472 44.1862 52.042 44.2669L44.5821 47.5002C43.6927 47.8829 42.6199 47.7057 41.8929 46.9817C40.9362 46.0286 40.9349 44.4835 41.8909 43.5298C42.2524 43.1694 42.6991 42.9587 43.1662 42.8576L51.0682 41.1038ZM28.9662 37.6217C29.4603 36.7914 30.4328 36.3076 31.4488 36.4691C32.7842 36.6804 33.6953 37.9315 33.4829 39.2626C33.4024 39.7661 33.1642 40.1973 32.8462 40.5524L32.8403 40.559L32.7987 40.6062L30.2369 43.491L29.9446 43.8192L27.4804 46.5938C27.107 46.9968 26.5567 47.2239 25.9741 47.1313C25.0656 46.9869 24.4461 46.1363 24.5906 45.2305C24.6276 44.9994 24.7114 44.7874 24.8295 44.6023L28.9662 37.6217ZM49.5916 35.6099C50.0607 35.2692 50.6307 35.1963 51.1572 35.3178L58.123 36.9404C58.6706 37.0638 59.1733 37.3867 59.5296 37.8744C60.3266 38.964 60.0864 40.4901 58.9939 41.2843C58.2418 41.8304 57.3036 41.8514 56.498 41.5166C56.4822 41.5101 49.9505 38.7946 49.9347 38.7868C49.6464 38.6601 49.3858 38.4599 49.1865 38.1875C48.5842 37.3644 48.7656 36.2105 49.5916 35.6099ZM44.233 27.0178C45.0531 26.6017 46.0566 26.9272 46.4742 27.7444C46.5805 27.9525 46.6379 28.1731 46.6524 28.3923L47.4243 36.4632C47.514 37.4248 47.0126 38.3857 46.0962 38.8504C44.8908 39.4622 43.4163 38.9837 42.8027 37.7825C42.5704 37.3283 42.5084 36.8399 42.5559 36.366L42.9122 32.6785L42.9544 32.242L43.3318 28.3358C43.3958 27.791 43.7072 27.2856 44.2324 27.0185L44.233 27.0178ZM22.4484 26.9404C23.3786 26.9397 24.1492 27.4734 24.6025 28.217C24.6117 28.2315 28.2866 34.259 28.2945 34.2741C28.4529 34.5459 28.5452 34.8609 28.5452 35.1977C28.5452 36.2164 27.7172 37.0427 26.6946 37.0434C26.114 37.0434 25.6106 36.7677 25.257 36.3608L20.5859 30.9627C20.2151 30.5426 20 29.986 20 29.3821C20 28.0346 21.0952 26.941 22.4484 26.9404ZM29.1562 28.5649C29.3877 28.5282 29.616 28.5419 29.8291 28.5964L29.8384 28.5984L37.7713 30.3542C38.7161 30.5656 39.4788 31.3375 39.6398 32.3496C39.8509 33.6814 38.9404 34.9312 37.6038 35.1425C37.099 35.2219 36.6135 35.1301 36.176 34.939L32.7657 33.4628L32.1601 33.2009C30.4143 32.4454 28.7577 31.7287 28.7504 31.7247C28.2497 31.4957 27.863 31.0447 27.7713 30.4645C27.6268 29.5587 28.247 28.708 29.1562 28.5649ZM42.8647 19.3204C44.1512 18.9036 45.5328 19.6053 45.9511 20.8872C46.2381 21.7687 45.9669 22.664 45.3969 23.3237L43.1444 25.9295L42.872 26.2446L40.7548 28.6929C40.5443 28.9266 40.2725 29.111 39.9505 29.2154C38.9787 29.5305 37.9343 29.0001 37.6183 28.0306C37.4388 27.4806 37.5457 26.9181 37.8254 26.4579L39.4927 23.7195L39.7084 23.3657L41.5366 20.3634C41.8243 19.8829 42.2887 19.5068 42.8647 19.3204Z" fill="#EB2D4B"/>
</svg>

<svg xmlns="http://www.w3.org/2000/svg" width="80" height="80" fill="none" viewBox="0 0 80 80"><rect width="80" height="80" fill="#141ed2" rx="8"/><path fill="#eb2d4b" fill-rule="evenodd" d="M43.488 49.683a1.854 1.854 0 0 1 2.584-.41c.47.34.715.859.761 1.395l.594 7.105a2.4 2.4 0 0 1-.46 1.62 2.455 2.455 0 0 1-3.42.541c-.753-.545-1.062-1.428-.99-2.295l.587-7.062c.033-.313.144-.621.343-.894m-10.65-4.181a2.453 2.453 0 0 1 3.294-1.066c.455.232.794.591 1.035 1.002l4.11 6.951c.269.478.316 1.07.048 1.593a1.67 1.67 0 0 1-2.768.305l-5.385-6.076a2.425 2.425 0 0 1-.334-2.71m-3.063 2.315a1.845 1.845 0 0 1 2.146 2.375c-.18.55-.6.94-1.098 1.15l-6.6 2.75a2.4 2.4 0 0 1-1.69.064 2.44 2.44 0 0 1-1.57-3.077c.29-.882 1.037-1.446 1.888-1.645l3.36-.785.406-.095zm21.293-6.713c.54-.108 1.12.03 1.536.446a1.656 1.656 0 0 1-.562 2.717l-7.46 3.233a2.45 2.45 0 0 1-2.69-.518 2.435 2.435 0 0 1-.001-3.452c.361-.36.808-.571 1.275-.672zm-22.102-3.482a2.44 2.44 0 0 1 2.483-1.153 2.44 2.44 0 0 1 2.034 2.794 2.53 2.53 0 0 1-.637 1.29l-.006.006-.041.047-2.562 2.885-.292.328-2.465 2.775c-.373.403-.923.63-1.506.537a1.66 1.66 0 0 1-1.145-2.529zm20.626-2.012c.469-.34 1.039-.414 1.565-.292l6.966 1.622c.548.124 1.05.447 1.407.934a2.435 2.435 0 0 1-.536 3.41c-.752.546-1.69.567-2.496.233-.016-.007-6.547-2.722-6.563-2.73a1.84 1.84 0 0 1-.343-3.177m-5.359-8.592a1.67 1.67 0 0 1 2.42 1.374l.771 8.071a2.43 2.43 0 0 1-1.328 2.387 2.453 2.453 0 0 1-3.293-1.068 2.5 2.5 0 0 1-.247-1.416l.356-3.687.042-.437.378-3.906a1.68 1.68 0 0 1 .9-1.317zm-21.785-.078c.93 0 1.701.533 2.154 1.277.01.015 3.685 6.042 3.692 6.057.159.272.251.587.251.924a1.85 1.85 0 0 1-1.85 1.845c-.581 0-1.084-.275-1.438-.682l-4.671-5.398a2.38 2.38 0 0 1-.586-1.58 2.445 2.445 0 0 1 2.448-2.443m6.708 1.625c.232-.037.46-.023.673.031l.01.002 7.932 1.756a2.435 2.435 0 0 1 1.869 1.996 2.44 2.44 0 0 1-2.036 2.792c-.505.08-.99-.012-1.428-.203l-3.41-1.476-.606-.262-3.41-1.476c-.5-.23-.887-.68-.979-1.26a1.66 1.66 0 0 1 1.385-1.9m13.709-9.245a2.45 2.45 0 0 1 3.086 1.567c.287.882.016 1.777-.554 2.437l-2.253 2.605-.272.316-2.117 2.448a1.852 1.852 0 0 1-3.137-.662c-.18-.55-.072-1.113.207-1.573l1.668-2.738.215-.354 1.829-3.003a2.4 2.4 0 0 1 1.328-1.043" clip-rule="evenodd"/></svg>
